src/assets/svg/project.svg

<svg xmlns="http://www.w3.org/2000/svg" viewBox="0 0 25 25" fill="none">
  <path d="M19.9731 3.98388L15.7931 3.96666C15.3779 2.80494 14.2814 1.96041 12.9814 1.95506C11.6814 1.9497 10.5779 2.78516 10.1532 3.94342L5.97319 3.92619C4.8732 3.92166 3.9695 4.81794 3.96496 5.91793L3.90727 19.9178C3.90274 21.0178 4.79902 21.9215 5.89901 21.926L19.8989 21.9837C20.9989 21.9883 21.9026 21.092 21.9071 19.992L21.9648 5.99211C21.9693 4.89212 21.0731 3.98842 19.9731 3.98388ZM12.9731 3.95504C13.5231 3.95731 13.9713 4.40916 13.969 4.95915C13.9667 5.50915 13.5149 5.95729 12.9649 5.95502C12.4149 5.95276 11.9667 5.5009 11.969 4.95091C11.9713 4.40091 12.4231 3.95277 12.9731 3.95504ZM14.9154 17.9632L7.91548 17.9343L7.92372 15.9343L14.9237 15.9632L14.9154 17.9632ZM17.9319 13.9756L7.93196 13.9344L7.9402 11.9344L17.9401 11.9756L17.9319 13.9756ZM17.9484 9.97559L7.94845 9.93438L7.95669 7.9344L17.9566 7.97561L17.9484 9.97559Z"/>
</svg>

<svg xmlns="http://www.w3.org/2000/svg" viewBox="0 0 25 25" fill="none"><path d="m19.973 3.984-4.18-.017c-.415-1.162-1.512-2.007-2.812-2.012s-2.403.83-2.828 1.988l-4.18-.017a2.006 2.006 0 0 0-2.008 1.992l-.058 14A2.006 2.006 0 0 0 5.9 21.926l14 .058a2.006 2.006 0 0 0 2.008-1.992l.058-14a2.006 2.006 0 0 0-1.992-2.008m-7-.029c.55.002.998.454.996 1.004s-.454.998-1.004.996a1.003 1.003 0 0 1-.996-1.004c.002-.55.454-.998 1.004-.996m1.942 14.008-7-.029.009-2 7 .03zm3.017-3.987-10-.042.008-2 10 .042zm.016-4-10-.042.009-2 10 .042z"/></svg>
